X:19014
T:Shepherd's Hey
R:Reel
C:Trad. Morris Dance
O:England
M:2/4
L:1/8
Q:1/4=120
K:G
GA|"G"B3/2c/ d3/2B/|"C"c2 c2|"G"B3/2c/ d3/2B/|("D7"A2A2)|"G"B3/2c/ d3/2B/|"C"c2 B3/2c/|"D7"d2 D2|"G"G2:|
|:GA|"G".B2 G2|"G"c2-c>A|"G".B2 G2|"D7"A4|"G"B3/2c/ d3/2B/|"C"c2 B3/2c/|"D7"d2 D2|"G"G2:|

